Origami/64x64/apps/google-docs.svg

<svg width="64" height="64" version="1" xmlns="http://www.w3.org/2000/svg">
 <path d="m14.5 8c-1.385 0-2.5 1.115-2.5 2.5v45c0 1.385 1.115 2.5 2.5 2.5h35c1.385 0 2.5-1.115 2.5-2.5v-32.5l-13.75-1.25-1.25-13.75z" style="opacity:.2"/>
 <path d="m14.5 7c-1.385 0-2.5 1.115-2.5 2.5v45c0 1.385 1.115 2.5 2.5 2.5h35c1.385 0 2.5-1.115 2.5-2.5v-32.5l-13.75-1.25-1.25-13.75z" fill="#528ff5"/>
 <path d="m14.5 7c-1.385 0-2.5 1.115-2.5 2.5v1c0-1.385 1.115-2.5 2.5-2.5h22.5l1.25 13.75 13.75 0.25-13.75-1.25-1.25-13.75z" style="fill:#ffffff;opacity:.2"/>
 <path d="m37 7v12.5c0 1.3808 1.1193 2.5 2.5 2.5h12.5l-15-15z" fill="#a5c5f9"/>
 <path d="m21 29v3h22v-3h-22zm0 6v3h22v-3h-22zm0 6v3h22v-3h-22zm0 6v3h16v-3h-16z" fill="#fff"/>
</svg>

<svg xmlns="http://www.w3.org/2000/svg" width="64" height="64" version="1">
 <path style="opacity:0.2" d="M 14.5,8 C 13.115,8 12,9.115 12,10.5 v 45 c 0,1.385 1.115,2.5 2.5,2.5 h 35 C 50.885,58 52,56.885 52,55.5 V 23 L 38.25,21.75 37,8 Z"/>
 <path fill="#528ff5" d="m14.5 7c-1.385 0-2.5 1.115-2.5 2.5v45c0 1.385 1.115 2.5 2.5 2.5h35c1.385 0 2.5-1.115 2.5-2.5v-32.5l-13.75-1.25-1.25-13.75z"/>
 <path style="opacity:0.2;fill:#ffffff" d="M 14.5,7 C 13.115,7 12,8.115 12,9.5 v 1 C 12,9.115 13.115,8 14.5,8 H 37 L 38.25,21.75 52,22 v 0 L 38.25,20.75 37,7 Z"/>
 <path fill="#a5c5f9" d="m37 7v12.5c0 1.3808 1.1193 2.5 2.5 2.5h12.5l-15-15z"/>
 <path fill="#fff" d="m21 29v3h22v-3h-22zm0 6v3h22v-3h-22zm0 6v3h22v-3h-22zm0 6v3h16v-3h-16z"/>
</svg>
